X: 4
T: The Eavesdropper
R: jig
M: 6/8
L: 1/8
K: Gmaj
|:D2B BAG|B3 dBG|cee dBG|BAA ABA|
D3 BAG|B3 dBG|cee dBA|BGG G3:||
d|:gab afd|efg dBG|cee dBG|BAA ABd|
g2b afd|efg dBG| cee dBA|BGG G3:||


Tune 389	Setting 389

